public/img/icons/prize4.svg

<svg width="37" height="24" viewBox="0 0 37 24" fill="none" xmlns="http://www.w3.org/2000/svg">
<path d="M5.67704 14.8948L0.589043 6.76683L6.02904 6.76683L9.35704 11.9508L12.557 6.76683L17.869 6.76683L12.813 14.7348L18.189 23.7268L12.717 23.7268L9.16504 17.6788L5.61304 23.7268H0.269043L5.67704 14.8948Z" fill="url(#paint0_linear_683_10367)"/>
<path d="M19.3115 19.6308L26.7355 13.4868C27.4609 12.8895 28.0795 12.3562 28.5915 11.8868C29.1035 11.3962 29.5195 10.9375 29.8395 10.5108C30.1809 10.0842 30.4262 9.67883 30.5755 9.29483C30.7462 8.88949 30.8315 8.4735 30.8315 8.04683C30.8315 7.30016 30.6182 6.72416 30.1915 6.31883C29.7862 5.9135 29.1995 5.71083 28.4315 5.71083C26.4049 5.71083 25.3915 6.9695 25.3915 9.48683H19.6315C19.6315 6.75616 20.3569 4.64416 21.8075 3.15083C23.2795 1.65749 25.4875 0.910828 28.4315 0.910828C29.7969 0.910828 30.9915 1.09216 32.0155 1.45483C33.0395 1.79616 33.8929 2.28683 34.5755 2.92683C35.2582 3.54549 35.7595 4.29216 36.0795 5.16683C36.4209 6.04149 36.5915 7.00149 36.5915 8.04683C36.5915 8.81483 36.4529 9.55083 36.1755 10.2548C35.9195 10.9588 35.5462 11.6415 35.0555 12.3028C34.5862 12.9642 34.0209 13.6042 33.3595 14.2228C32.6982 14.8415 31.9835 15.4495 31.2155 16.0468L27.3435 18.9908H36.9115V23.7268H19.3115V19.6308Z" fill="url(#paint1_linear_683_10367)"/>
<defs>
<linearGradient id="paint0_linear_683_10367" x1="1.98383" y1="26.2709" x2="42.455" y2="-19.238" gradientUnits="userSpaceOnUse">
<stop offset="0.0989583" stop-color="#FFC62F"/>
<stop offset="0.3424" stop-color="#FFEAA5"/>
<stop offset="0.482125" stop-color="#EBD084"/>
<stop offset="1" stop-color="#A37207"/>
</linearGradient>
<linearGradient id="paint1_linear_683_10367" x1="1.98383" y1="26.2709" x2="42.455" y2="-19.238" gradientUnits="userSpaceOnUse">
<stop offset="0.0989583" stop-color="#FFC62F"/>
<stop offset="0.3424" stop-color="#FFEAA5"/>
<stop offset="0.482125" stop-color="#EBD084"/>
<stop offset="1" stop-color="#A37207"/>
</linearGradient>
</defs>
</svg>

<svg width="37" height="24" fill="none" xmlns="http://www.w3.org/2000/svg"><path d="M5.677 14.895.589 6.767h5.44l3.328 5.184 3.2-5.184h5.312l-5.056 7.968 5.376 8.992h-5.472l-3.552-6.048-3.552 6.048H.269l5.408-8.832Z" fill="url(#a)"/><path d="m19.311 19.63 7.424-6.143a46.878 46.878 0 0 0 1.857-1.6c.512-.49.928-.95 1.248-1.376.34-.427.586-.832.736-1.216.17-.406.255-.822.255-1.248 0-.747-.213-1.323-.64-1.728-.405-.405-.991-.608-1.76-.608-2.026 0-3.04 1.258-3.04 3.776h-5.76c0-2.73.726-4.843 2.177-6.336C23.279 1.657 25.488.91 28.43.91c1.366 0 2.56.181 3.585.544 1.023.341 1.877.832 2.56 1.472a5.55 5.55 0 0 1 1.504 2.24c.34.874.512 1.834.512 2.88 0 .768-.14 1.504-.416 2.208a8.06 8.06 0 0 1-1.12 2.048 12.718 12.718 0 0 1-1.697 1.92 30.92 30.92 0 0 1-2.144 1.824l-3.872 2.944h9.568v4.736h-17.6V19.63Z" fill="url(#b)"/><defs><linearGradient id="a" x1="1.984" y1="26.271" x2="42.455" y2="-19.238" gradientUnits="userSpaceOnUse"><stop offset=".099" stop-color="#FFC62F"/><stop offset=".342" stop-color="#FFEAA5"/><stop offset=".482" stop-color="#EBD084"/><stop offset="1" stop-color="#A37207"/></linearGradient><linearGradient id="b" x1="1.984" y1="26.271" x2="42.455" y2="-19.238" gradientUnits="userSpaceOnUse"><stop offset=".099" stop-color="#FFC62F"/><stop offset=".342" stop-color="#FFEAA5"/><stop offset=".482" stop-color="#EBD084"/><stop offset="1" stop-color="#A37207"/></linearGradient></defs></svg>
